X:1
T:Kyrie
T:Andrea Gabrieli (1532–1586)
T:Arranged 2015 Rev. Anthony Cekada Andrew Richesson
T:Missa Brevis in F
T:Kyrie
C:Andrea Gabrieli
%%score [ 1 ( 2 3 ) ] { ( 4 6 ) | ( 5 7 ) } 8
L:1/8
Q:1/4=92
M:4/4
K:F
V:1 treble nm="Soprano" snm="S"
V:2 treble nm="Alto" snm="A"
V:3 treble 
V:4 treble nm="Organ" snm="Org."
V:6 treble 
V:5 bass 
V:7 bass 
V:8 bass nm="MusicXML Part"
V:1
!mf! F4 c2 d2 | c2 G2 A2 B2 | c2 A2 G2 F2 | G2 c4 =B2 | c4!p! z2 G2 | c2 d2 c2 G2 | A2 B2 A3 G | %7
w: Ky- * ri-|e e- le- *|* i- son, e-|le- * i-|son, Ky-|* ri- e e-|le- i- son, _|
 AB c2 d4 | c3 B/A/ G4 | A8 || z8 | z2!f! F2- FGAB | cABc de f2 | e3 f g2 g2 | c8 | z4!mf! z2 c2- | %16
w: _ _ _ e-|lei _ _ _|son.||Chri- * * * *||ste e- le- i-|son,|Chri-|
 cBAG F2 B2 | B2 B2 c2 G2- | GABc- cB A2 | G2 c4 =B2 | c8 ||!p! c2 cc B2 d2 | c2 A2 G3 A | %23
w: * * * * * ste|e- lei son, e-||le- * i-|son.|Ky- ri- e e- lei|son, e- lei- *|
 BAAG/F/ G4 | A4 z4 | z4!mf! c2 cc | B2 d2- dc c2- | c2 =B2 c4 | z4!p! G2 GG | F2 A2 G4 | %30
w: |son,|Ky- ri- e|e- le- * * *|* i- son,|Ky- ri- e|e- lei- son,|
!f! B2 BB A2 G2- |"^rit." GF F4 E2 | F8 ||[Q:1/4=92]!p! F3 F c2 d2 | c2 G2 A2 G2 | %35
w: Ky- ri- e e- le-|* * * i-|son.|Et in ter- ra|pax ho- mí- ni-|
 A2!f! cc c=B c2 | c2!mf! A2 A2 B2 | A2 AA A2 BB | A2!p! B4 B2 | B2 A2 G2!f! c2 | c2 d4 c2- | %41
w: bus bo- nae vo- lun- tá-|tis. Lau- dá- mus|te. Be- ne- dí- ci- mus|te. A- do-|rá- mus te. Glo-|ri- fi- cá-|
 c2 =B2 c2!p! A2- | AA A2 G2 B2 | A2 G4 G2 |!mf! A2 A2 B4- | B2 B2 A2 G2- | G2 F4 E2 | F4 z4 | z8 | %49
w: * mus te. Grá-|* ti- as á- gi-|mus ti- bi|pro- pter ma-|* gnam gló- ri-|* am tu-|am.||
!mf! G6 G2 | c4 c2 c2- | c2 f4 f2 | e4 c2 df | e2 c c2 d2 c- | c=B c2!p! A4- | A2 A2 d4- | %56
w: De- us|Pa- ter o-|* mní- po-|tens. Dó- mi- ne|Fi- li U- ni- gé-|* ni- te, Je-|* su Chri-|
 d4 c2!f! c2 | cc A2 G2 A2- | A2 B2 d4 | c2 c3 =B B2 | =B4"^rit." c4- | !fermata!c8 || %62
w: * ste. Dó-|mi- ne De- us, A-|* gnus De-|i, Fí- li- us|Pa- tris.|_|
!p![Q:1/4=84] c4 d2 cc | ff e4 d2 | z8 | z2!mf! c2 c2 cc | ff e4 d2 |!p! cc F2 FFFF | %68
w: Qui tol- lis pec-|cá- ta mun- di,||Qui tol- lis pec-|cá- ta mun- di,|sú- sci- pe de- pre- ca- ti-|
 FF F2 F2!mf! A2 | c2 BB B2 Ac | =B2 c2!p! cc_BA |[Q:1/4=92] G2 A2!f! c3 c | c2 c2 dd c2 | %73
w: ó- nem no- stram. Qui|se- des ad déx- te- ram|Pa- tris, mi- se- ré- re|no- bis. Quó- ni-|am tu so- lus San-|
 c2 c2 BABG | A2 c2 c2 cc | cc d2!p! B4- | B2 B2 AG G2- | G2 ^F2 G2!ff! G2 | GGAA G2 G2 | %79
w: ctus. Tu so- lus Dó- mi-|nus. Tu so- lus Al-|tís- si- mus, Je-|* su Chri- * *|* * ste. Cum|San- cto Spí- ri- tu in|
 A2 AA B2 A2 | d4 c4 |"^rit." c8 | A8 ||[Q:1/4=88] z8 |!p! c6 A2 | c2 FGAB c2- | c2 B4 A2- | %87
w: gló- ri- a De- i|Pa- tris.|A-|men.||San- *|ctus, san- * * * *|* ctus, san-|
 A2 G2 A3 B | c2 B4 A2 | G4 c4- | c2 B4 A2- | AG F2 E2 F2- | F2 E2 F4 | z8 | z4!mf! c3 A | %95
w: ||ctus, san-||* * * ctus, san-|* * ctus.||Do- mi-|
 A2 B4 c2 | G2 A2 A3 G/F/ | G2!f! g3 d d2 | _e2 c2 c2 G2 | A4!p! c4 | c2 c2 d4 | d2 c2 B4 | %102
w: nus De- us|Sa- ba- oth, _ _|_ Do- mi- nus|De- us Sa- ba-|oth, Ple-|ni sunt coe-|li et ter-|
 A4 A3 A | =B2 c4 A2 |!f! f3 e d2 d2- | d2 c2 B3 G | A4 G4 | A8 ||[M:3/4][Q:1/4=96] z6 | z6 | %110
w: ra glo- ri-|a tu- a,|glo- ri- a tu-|* a, glo- ri-|a tu-|a.|||
!mf! c2 c2 d2 | c3 A B2 | A4 z2 |!f! e2 e2 f2 | e3 c d2 | c6- | c6 || %117
w: Ho- san- na|in ex- cel-|sis,|ho- san- na|in ex- cel-|sis.|_|
[M:4/4][Q:1/4=84]!p! F4 F2 c2- | cB G2 A3 B | c2 A2 A4 | G4 z2 c2 | c2 f2- fe c2 | d2 d2 d3 c | %123
w: Be- ne- di-|* * * ctus _|_ qui ve-|nit, be-|ne- di- * * *|ctus qui ve- *|
 de f4 e2 | z2!mf! c4 c2 | f3 e c2 d2 | d2 f4 e2 |[Q:1/4=92] f2!p! c2 c2 d2 | c4 z2 d2 | %129
w: * * * nit,|be- ne-|di- * * ctus|qui ve- *|nit, in no- mi-|ne in|
 d2 c2 d2 G2 | G2 A2 G2 B2- | B2 G2 A2 c2 | c2 d2 c4- | c2 d4 d2 | c8 ||[M:3/4][Q:1/4=96] z6 | z6 | %137
w: no- mi- ne in|no- mi- ne Do-|* mi- ni. in|no- mi- ne|_ Do- mi-|ni.|||
!mf! c2 c2 d2 | c3 A B2 | A4 z2 |!f! e2 e2 f2 | e3 c d2 | c6- | c6 ||[M:4/4][Q:1/4=80] z4!mf! F4- | %145
w: Ho- san- na|in ex- cel-|sis,|ho- san- na|in ex- cel-|sis.|_|A-|
 F2 F2 B4 | A2 A4 c2 | dc c4 =B2 | c2 c2 c2 cc | cc c2 =B2 c2 | c2 dd ff f2 | e4 z4 | z4 z2!p! cc | %153
w: * gnus De-|i, A- gnus|De- * * *|i, qui tol- lis pec-|ca- ta mun- di, qui|tol- lis pec- ca- ta mun-|di:|mi- se-|
 d2 c2 z2!mf! cc | d2 cc- c=B/A/ B2 | c8- | c8 :|[Q:1/4=92] z4!f! F4- | F2 F2 B4 | A2 A4 c2 | %160
w: re- re, mi- se-|re- re no- * * * *|bis.|_|A-|* gnus De-|i, A- gnus|
 dc c4 =B2 | c4 z2 c2- | c2 c2 f4 | e4 z4 | z8 | c4 c2 cc | cc c2 =B2 c2 | c2 dd ff f2 | %168
w: De- * * *|i, A-|* gnus De-|i,||qui tol- lis pec-|ca- ta mun- di: qui|tol- lis pec- ca- ta mun-|
 e4 z2!p! cc | d2 c c2 =B/A/ B2 | c4 z4 | z4 z2!f! cc | d2 c2 z2 cc | d2 c c2 =B/A/ B2 | c8- | %175
w: di, do- na|no- bis pa- * * *|cem,-|do- na|no- bis, do- na|no- bis pa- * * *|cem,-|
 c4 A3 A |"^rit." B2 c2 d4 | c8 |] %178
w: _ do- na|no- bis pa-|cem.-|
V:2
 z8 |!mf! x8 | x8 | x8 | x8 | x8 | x8 | x8 | x8 | x8 || x8 | x8 | x8 | x8 | x8 | x8 | x8 | x8 | %18
 x8 | x8 | x8 || z8 |!p! x8 | x8 | x8 |!mf! x8 | x8 | x8 | x8 | x8 |!f! x8 | x8 | x8 ||!p! x8 | %34
 x8 | x8 | x8 | x8 | x8 | x8 | x8 | x8 | x8 | x8 |!mf! x8 | x8 | x8 | x8 | x8 | x8 | x8 | x8 | x8 | %53
 x8 | x8 | x8 | x8 | x8 | x8 | x8 | x8 | x8 ||!p! x8 | x8 | x8 | x8 | x8 |!p! x8 | x8 | x8 | x8 | %71
 x8 | x8 | x8 | x8 | x8 | x8 | x8 | x8 | x8 | x8 | x8 | x8 || z8 | z8 | z8 | x8!p! | x8 | x8 | x8 | %90
 x8 | x8 | x8 | x8 | x8 | x8 | x8 | x8 | x8 | x8 | x8 | x8 | x8 | x8 |!f! x8 | x8 | x8 | x8 || %108
[M:3/4]!mf! x6 | x6 | x6 | x6 | x6 |!f! x6 | x6 | x6 | x6 ||[M:4/4] z8 |!p! x8 | x8 | x8 | x8 | %122
 x8 | x8 | x8 | x8 | x8 | x8 | x8 | x8 | x8 | x8 | x8 | x8 | x8 ||[M:3/4]!mf! x6 | x6 | x6 | x6 | %139
 x6 |!f! x6 | x6 | x6 | x6 ||[M:4/4]!mf! x8 | x8 | x8 | x8 | x8 | x8 | x8 | x8 | x8 | x8 | x8 | %155
 x8 | x8 :|!f! x8 | x8 | x8 | x8 | x8 | x8 | x8 | x8 | x8 | x8 | x8 | x8 | x8 | x8 | x8 | x8 | x8 | %174
 x8 | x8 | x8 | x8 |] %178
V:3
 x8 | C4 F2 G2 | F ECD E2 F2- | F2 E2 C2 G2 | A2 G2!p! F2 G2 | A2 F4 E2 | F2 D2 F2 F2 | %7
w: |Ky- * ri-|e e- * * * lei|_ son, Ky- *|ri- e e- *|* le- i-|son, Ky- * ri-|
 F2 G3 F F2 | E2 F4 E2 | F8 || z2 C2-!f! CDEF | GEFG AB c2 | A2 G2 F2 D2 | G2 G4 G2 | %14
w: e e- * *|* le- i-|son.|Chri- * * * *||ste e- le- i-|son, Chri- ste|
 A4!mf! A2 GF | E2 D2 E4 | F3 E DCB,A, | G,2 D2 E3 D | C2 G2 F4 | E3 F G4 | G8 || x8 | %22
w: e- le- * *|* i- son,|Chri- * * * * *|* ste e- *|* lei son,|e- lei- *|son.||
 F2 FF E2 G2- | GF F4 E2 | F4 z4 | F2 FF E2 G2- | GA B2 A2 F2 | G3 F ED E2 | D2!p! F4 E2 | %29
w: Ky- ri- e e- lei-||son,|Ky- ri- e e- lei-|* * * son, e-|lei- * * * *|son, e- lei-|
 DEFD E4 | F2 FF E2 E2 | DCA,B, C4 | C8 || C3 C F2 F2 | E2 E2 F2 D2 | F2!f! AA GF G2 | %36
w: son, _ _ _ _|Ky- ri- e e- lei-||son.|Et in ter- ra|pax ho- mí- ni-|bus bo- nae vo- lun- tá-|
 A2!mf! F2 F2 F2 | F2 FF F2 FF | F2!p! G4 G2 | F2 F2 E2!f! G2 | A2 A3 G E2 | G2 G2 G2!p! F2- | %42
w: tis. Lau- dá- mus|te. Be- ne- dí- ci- mus|te. A- do-|rá- mus te. Glo-|ri- fi- * *|cá- mus te. Grá-|
 FF F2 E2 F2 | F2 D4 E2 | F2 F2 F4 | G4 F2 E2 | D2 C2 C4 | C2!p! C2 B,C D2 | C F2 E D2 C2 | %49
w: * ti- as á- gi-|mus ti- bi|pro- pter ma-|* gnam gló-|ri- am tu-|am. Dó- mi- ne De-|us, Rex cæ- lé- stis,|
 z4!mf! E4- | E2 E2 F4 | F2 A2 A2 D2 | G2 G2 Ac B2 | G A2 F- F2 E2 | DD E2 z2!p! F2- | %55
w: De-|* us Pa-|ter o- mní- po-|tens. Dó- mi- ne Fi-|li U- * * ni-|gé- ni- te, Je-|
 F2 F2 F3 G/A/ | B4 A2!f! A2 | GG F2 E2 F2- | F2 F2 B4 | A4 z2 G2- | GG G2 A4 | G8 || G4 B2 AA | %63
w: * su Chri- * *|* ste. Dó-|mi- ne De- us, A-|* gnus De-|i, Fí-|* li- us Pa-|tris.|Qui tol- lis pec-|
 cc c4 B2 | AGFE F4 | E2!mf! G2 A2 AG | A=B c2 G4 | EE F2 DDDD | CC D2 C2!mf! F2 | G2 GG F2 FE | %70
w: cá- ta mun- di,|mi- se- ré- re no-|bis. Qui tol- lis pec-|cá- ta mun- di,|sú- sci- pe de- pre- ca- ti-|ó- nem no- stram. Qui|se- des ad déx- te- ram|
 G2 G2!p! AGFE | D2 E2!f! A3 A | A2 A2 BB G2 | A2 A2 GFDE | F2 A2 G2 AA | AA B2!p! G4 | F4 _E4 | %77
w: Pa- tris, mi- se- ré- re|no- bis. Quó- ni-|am tu so- lus San-|ctus. Tu so- lus Dó- mi-|nus. Tu so- lus Al-|tís- si- mus, Je-|su Chri-|
 D6!ff! D2 | EEFF E2 E2 | F2 FF F2 F2 | F3 G A2 F2 | E3 D E4 | F8 || x8 | x8 | x8 | z4 F4- | %87
w: ste. Cum|San- cto Spí- ri- tu in|gló- ri- a De- i|Pa- * * tris.|A- * *|men.||||San-|
 F2 D2 F2 CD | EF G2 D2 F2- | F2 ED E2 F2 | E2 D3 E F2- | F2 C4 B,2 | C8 | z2!mf! F3 D D2 | %94
w: * * ctus, san- *|* * * ctus, san-||* ctus, _ _|_ san- *|ctus.|Do- mi- nus|
 E2 G2 A2 F2 | D>E F2 G3 E | E2 F4 F2 | B,2 _E2 D2!f! G2- | G2 F4 E2 | F4!p! A4 | G2 A2 B4 | %101
w: De- us Sa- ba-|oth, _ _ Do- mi-|nus De- us|Sa- ba- oth, Sa-|* * ba-|oth. Ple-|ni sunt coe-|
 B2 A2 G4 | F4 E3 ^F | G2 G4 C2 | A3 G F2 F2- | F2 A2 G3 G | F2 F4 E2 | F8 ||[M:3/4] F2 F2 G2 | %109
w: li et ter-|ra glo- ri-|a tu- a,|glo- ri- a tu-|* a, glo- ri-|a tu- *|a.|Ho- san- na|
 F3 D E2 | F2 F2 D2 | G2 F3 E | F4 z2 | G2 G2 A2 | G3 F F2 | E>F G F2 E | F6 ||[M:4/4] x8 | %118
w: in ex- cel-|sis, in ex-|cel- * *|sis,|ho- san- na|in ex- cel-||sis.||
 C4 C2 F2- | FE C2 D2 E2- | E2 DE FE A2- | AG FE D2 A2 | z2 F2 F2 B2- | BA F2 A2 G2 | cB AG A4 | %125
w: Be- ne- di-|* * * ctus qui|_ ve- * * * *|* * * * * nit,|be- ne- di-|* * * ctus qui|ve- * * * *|
 A2!mf! B2 AG FE | FG AF G4 | F8 | z2!p! F2 F2 G2 | F6 E2 | E2 F2 E2 D2- | D2 E2 F4 | z2 A2 A2 G2 | %133
w: nit, qui ve- * * *||nit,|in no- mi-|ne, in|no- mi- ne, Do-|* mi- ni,|in no- mi-|
 A2 B4 B2 | A8 ||[M:3/4] F2 F2 G2 | F3 D E2 | F2 F2 D2 | G2 F3 E | F4 z2 | G2 G2 A2 | G3 F F2 | %142
w: ne Do- mi-|ni.|Ho- san- na|in ex- cel-|ho- san- na|in ex- cel-|sis.|ho- san- na|in _ ex-|
 E>F G F2 E | F6 ||[M:4/4] C6 C2 | DE F4 E2 | F4 z2 A2- | A2 A2 F4 | E2 E2 F2 AA | AA G2 G2 G2 | %150
w: cel- * * * *|sis.|A- gnus|De- * * *|i, A-|* gnus De-|i, qui tol- lis pec-|ca- ta mun- di, qui|
 F2 FF BB A2 | G2!p! GG A2 FF- | FE/D/ E2 F2 AA | B2 A2 z2!mf! AA | B2 F2 F4 | G2 GG A2 FF- | %156
w: tol- lis pec- ca- ta mun-|di: mi- se- re- re no-|* * * * bis, mi- se-|re- re, mi- se-|re- re no-|bis, mi- se- re- re no-|
 FE/D/ E2 F4 :| C6 C2 | DE F4 E2 | F4 z2 A2- | A2 A2 F4 | G4 G2 G2 | A3 G FGA=B | c4 A4 | %164
w: * * * * bis.|A- gnus|De- * * *|i, A-|* gnus De-|i, A- gnus|De- * * * * *|i, qui|
 B2 GG BB B2 | A2 A2 G2 AA | AA G2 G2 E2 | F2 FD DD C2 | C4 z2!p! EE | F2 A2 D4 | E2 GG A2 FF- | %171
w: tol- lis pec- ca- ta mun-|di, qui tol- lis pec-|ca- ta mun- di, qui|tol- lis pec- ca- ta mun-|di: do- na|no- bis, pa-|cem,- do- na no- bis pa-|
 FE/D/ E2 F2!f! AA | B2 A2 F4- | F8 | G2 GG A2 FF- | FE/D/ E2 F2 CC | D2 C2 B,4 | C8 |] %178
w: * * * * cem,- do- na|no- bis, pa-||cem,- do- na no- bis pa-|* * * * cem,- do- na|no- bis pa-|cem.-|
V:4
 F4 c2 d2 | c2 G2 A2 B2 | c2 A2 G2 F2 | G2 c4 =B2 | c4!p! F2 G2 | c2 d2 c2 G2 | A2 B2 A3 G | %7
 AB c2 d4 | c3 B/A/ G4 | A8 || x8 | x8 | cA Bc de f2 | e3 f g2 g2 | c8 | z4 z2 c2- | cB AG F2 B2 | %17
 B2 B2 c2 G2- | GA Bc- cB A2 | G2 c4 =B2 | c8 ||!p! c2 cc B2 d2 | c2 A2 G3 A | BA AG/F/ G4 | %24
 A4 z4 | z4 c2 cc | B2 d2- dc c2- | c2 =B2 c4 | z4 G2 GG | F2 A2 G4 | B2 BB A2 G2- | GF F4 E2 | %32
 F8 || F3 F c2 d2 | c2 G2 A2 G2 | [FA]2!f! [Ac][Ac] [Gc][F=B] [Gc]2 | c2 A2 A2 B2 | %37
 [FA]2 [FA][FA] [FA]2 [FB][FB] | A2 B4 B2 | B2 A2 G2 c2 | c2 d4 c2- | c2 =B2 c2!p! A2- | %42
 [FA][FA] [FA]2 [EG]2 [FB]2 | A2 G4 G2 |!mf! A2 A2 B4- | B2 B2 A2 G2- | G2 F4 E2 | F4 z4 | x8 | %49
!mf! G6 G2 | c4 c2 c2- | c2 f4 f2 | e4 c2 df | e2 c c2 d2 c- | c=B c2!p! A4- | A2 A2 d4- | %56
 d4 c2!f! c2 | [Gc][Gc] [FA]2 [EG]2 [FA]2- | A2 B2 d4 | [Ac]2 [Ac]3 =B [GB]2 | =B4 c4- | %61
 !fermata!c8 ||!p! [Gc]4 [Bd]2 [Ac][Ac] | [cf][cf] [ce]4 [Bd]2 | x8 | E2!mf! [Gc]2 [Ac]2 [Ac][Gc] | %66
 ff e4 d2 |!p! [Ec][Ec] F2 [DF][DF][DF][DF] | [CF][CF] [DF]2 [CF]2!mf! [FA]2 | %69
 [Gc]2 [GB][GB] [FB]2 [FA][Ec] | [G=B]2 [Gc]2!p! [Ac][Gc][F_B][EA] | [DG]2 [EA]2!f! [Ac]3 [Ac] | %72
 [Ac]2 [Ac]2 [Bd][Bd] [Gc]2 | c2 c2 BABG | [FA]2 [Ac]2 [Gc]2 [Ac][Ac] | [Ac][Ac] [Bd]2!p! [GB-]4 | %76
 B2 B2 AG G2- | G2 ^F2 G2!ff! G2 | [EG][EG][FA][FA] [EG]2 [EG]2 | [FA]2 [FA][FA] [FB]2 [FA]2 | %80
 d4 c4 | c8 | A8 || z8 | c6 A2 | c2 FG AB c2- | c2 B4 A2- | A2 G2 A3 B | c2 B4 A2 | G4 c4- | %90
 c2 B4 A2- | AG F2 E2 F2- | F2 E2 F4 | x8 | z4 c3 A | A2 B4 c2 | G2 A2 A3 G/F/ | G2!f! g3 d d2 | %98
 _e2 c2 c2 G2 | A4 c4 | c2 c2 d4 | d2 c2 B4 | A4 A3 A | =B2 c4 A2 |!f! f3 e d2 d2- | d2 c2 B3 G | %106
 A4 G4 | A8 ||[M:3/4]!mf! x6 | x6 | c2 c2 d2 | c3 A B2 | A4 z2 |!f! e2 e2 f2 | e3 c d2 | c6- | %116
 c6 ||[M:4/4]!pp! F4 F2 c2- | cB G2 A3 B | c2 A2 A4 | G4 z2 c2 | c2 f2- fe c2 | d2 d2 d3 c | %123
 de f4 e2 | cB c4 c2 | f3!mf! e c2 d2 | d2 f4 e2 | f2!p! c2 c2 d2 | c4 z2 d2 | d2 c2 d2 G2 | %130
 G2 A2 G2 B2- | B2 G2 A2 c2 | c2 d2 c4- | c2 d4 d2 | c8 ||[M:3/4]!mf! x6 | x6 | c2 c2 d2 | %138
 c3 A B2 | A4 z2 |!f! e2 e2 f2 | e3 c d2 | c6- | c6 ||[M:4/4] z4 F4- | F2 F2 B4 | A2 A4 c2 | %147
 dc c4 =B2 | c2 c2 c2 [Ac][Ac] | [Ac][Ac] c2 =B2 c2 | c2 [Fd][Fd] [Bdf][Bdf] f2 | e4 x4 | x6 cc | %153
 d2 c2 z2 cc | d2 cc- c=B/A/ B2 | c8- | c8 :| z4 F4- | F2 F2 B4 | A2 A4 c2 | dc c4 =B2 | %161
 c4 G2 c2- | c2 c2 f4 | e4 z4 | x8 | c4 c2 cc | cc c2 =B2 c2 | c2 [Fd][Fd] [Af][Af] [Af]2 | %168
 [Ge]4 z2 [Ec][Ec] | d2 c c2 =B/A/ B2 | c4 A2 FF | FE/D/ E2 F2!f! [Ac][Ac] | d2 c2 z2 cc | %173
 d2 c c2 =B/A/ B2 | c8- | c4 A3 A | [FB]2 [Fc]2 [Bd]4 | c8 |] %178
V:5
!mf! z8 | z8 | F,4 C2 D2 | C2 G,2 A,2 D2 | F2 E2!p! D2 C2 | A,3 B, C4 | F,2 G,2 C2 D2 | %7
 C2 G,2 A,2 B,2 | G,2 A,2 C4 | C8 ||!f! F,3 G, A,B, CA, | B,C DE F2 F2- | F2 _E2 D2 B,2 | %13
 C2 C4 B,2 | A,2- A,B,!mf! C4- | C2 =B,2 C4 | z4 D[CE] [B,D][A,C] | G,2 G,F, G,2 G,2 | %18
 G,F, G,E, C4- | C4 D4 | C8 ||!p! z8 | z4 C2 CC | B,2 D2 C4 | F,2 C2 CC B,2 |!mf! D2 C2- CD E2 | %26
 D3 E F2 C2 | D4 C4 | F,4!p! C4 | z4 C2 CC |!f! B,2 D2 CB, G,A, | B,A, A,G,/F,/ G,4 | A,8 || %33
!pp! A,3 A, A,2 B,2 | G,2 C2 C2 B,2 | C2 FF ED E2 | F2!mf! C2 D2 D2 | C2 CC D2 DD | C2!p! _E4 E2 | %39
 D2 C2 C2!f! E2 | F2 F2 E3 D/C/ | D2 D2 C2 C2- | CC C2 C2 D2 | C2 =B,4 C2 | C2 C2 D4- | D2 _E2 C4 | %46
 B,2 A,2 G,4 | x8 | x8 | z4 C4- | C2 G,2 A,2 A,2 | A,2 C4 =B,2 | C4 z4 | z8 | z2 C4 C2 | C4 B,4 | %56
 F,4 F,2 F2 | EE C2 C2 C2- | C2 D2 F4- | F4 D2 D2 | x8 | x8 || E4 F2 FF | FF G4 G2 | %64
 EDCB, A, C2 =B, | C2 E2 F2 FE | DD C4 =B,2 | G,G, B,2 B,B,B,F, | F,F, B,2 A,2 C2 | E2 DD D2 CC | %70
 D2 C2 FEDC | B,2 A,2 F3 F | E2 F2 FF E2 | F4 z4 | z2 F2 E2 FF | FF F2 _E4 | D4 C3 B, | %77
 A,4 G,2 =B,2 | CCF,F, C2 C2 | C2 CC D2 C2 | B,2 F,3 G, A,2 | G,8 | F,8 ||!pp! C6 A,2 | %84
 C2 F,G, A,B, C2 | A,2 D2 C2 EF | x8 | C2 B,2 C2 A,2- | A,2 G,2 B,2 F,2 | C2 G,4 A,2 | G,4 F,4 | %91
 C2 A,4 G,F, | G,4 z2 C2- | CA, A,2 B,2 G,2 | C2 C3 A, A,2 | D>E D2 _E2 C2 | C4 D3 D | %97
 G,2 C4 =B,2 | CB, A,G,/F,/ G,2 G,2 | F,4!p! F4 | E2 F2 F4 | F2 F2 D4 | D4 ^C3 D | D2 E4 C2 | %104
 C3 C A,2 B,2- | B,2 A,2 D3 C | C4 C4 | C8 ||[M:3/4] A,2 D2 C2 | A,2 B,2 G,2 | A,B, CB, A,F, | %111
 G,2 A,2 G,2 | F,4 z2 | C2 C2 C2 | C3 A, B,2 | G, C2 A, G,2 | A,6 ||[M:4/4] z8 | z8 | F,4 F,2 C2- | %120
 CB, G,2 A,3 B, | C2 D2 D2 F2 | B,8 | z4 z2 C2 | C2 F2- FE C2 | D3 E F2 B,2 | D4 C4 | %127
 z2 F,2 A,2 B,2 | F,4 z2 B,2 | B,2 A,2 B,2 C2 | C2 F,2 C2 G,2- | G,2 C2 F,4 | z2 F2 F2 E2 | %133
 F2 B,4 B,,2 | F,8 ||[M:3/4] A,2 D2 C2 | A,2 B,2 G,2 | A,B, CB, A,F, | G,2 A,2 G,2 | F,4 z2 | %140
 C2 C2 C2 | C3 A, B,2 | G, C2 A, G,2 | A,6 ||[M:4/4]!mf! x8 | x8 | C6 C2 | F3 E D4 | %148
 G,2 G,2 A,2 CC | FF E2 D2 C2 | A,2 A,A, B,B, C2 | C2!p! CC C2 B,2 | G,4 A,2 z2 | z2 CC D2 C2 | %154
 x8 | E2 C2 CB, A,G,/F,/ | G,4 A,4 :|!f! x8 | x8 | C6 C2 | F3 E D4 | E3 D E2 C2 | C8 | C4 F,2 C2 | %164
 D2 _EE DD D2 | C2 F2 E2 xx | xx E2 D2 C2 | A,2 B,B, A,A, C2 | C4!p! C3 C | B,2 F,2 G,4 | %170
 x4 C2 B,2 | G,4 A,2 FF | B,2 F2 D2 C2 | x8 | x4 C2 A,2 | G,4 F,2 F,F, | F,2 F,2 [F,B,]4 | C8 |] %178
V:6
 x8 | C4 F2 G2 | FE CD E2 F2- | F2 E2 C2 G2 | A2 G2 F2 G2 | A2 F4 E2 | F2 D2 F2 F2 | F2 G2- GF F2 | %8
 E2 F4 E2 | F8 || z2 C2- CD EF | GE FG A[GB] [Ac]B | A2 G2 F2 D2 | G2 G4 G2 | A4 A2 GF | E2 D2 E4 | %16
 F3 E F2 B2 | B,A, D2 E3 D | C2 G2 F4 | E3 F G4 | G8 || x8 | F2 FF E2 G2- | GF F4 E2 | F4 z4 | %25
 F2 FF E2 G2- | GA B2 A2 F2 | G3 F ED E2 | D2 F4 E2 | DE FD E4 | F2 FF E2 E2 | DC DB, C4 | C8 || %33
 C3 C F2 F2 | E2 E2 F2 D2 | x8 | A2 F2 F2 F2 | x8 | F2 G4 G2 | F2 F2 E2 G2 | A2 A3 G E2 | %41
 G2 G2 G2 F2- | x8 | F2 D4 E2 | F2 F2 F4 | G4 F2 E2 | D2 C2 C4 | C2 C2 B,C D2 | C F2 E D2 C2 | %49
 z4 E4- | E2 E2 F4 | F2 A2 A2 D2 | G2 G2 Ac B2 | G A2 F F2 E2 | DD E2 z2 F2- | F2 F2 F3 G/A/ | %56
 B4 A2 A2 | x8 | F2 F2 B4 | x8 | [DG][DG] [DG]2 [FA]4 | [EG]8 || x8 | x8 | AGFE F4 | x8 | %66
 A=B c2 G4 | x8 | x8 | x8 | x8 | x8 | x8 | A2 A2 GFDE | x8 | x8 | F4 _E4 | D6 D2 | x8 | x8 | %80
 F3 G A2 F2 | E3 D E4 | F8 || x8 | x8 | x8 | G2 D2 F4- | F2 D2 F2 CD | EF G2 D2 F2- | F2 ED E2 F2 | %90
 E2 D3 E F2- | F2 C4 B,2 | C8 | z2!mf! F3 D D2 | E2 G2 A2 F2 | F2 F2 G3 E | E2 F4 F2 | %97
 B,2 _E2 D2 G2- | G2 F4 E2 | F4 A4 | G2 A2 B4 | B2 A2 G4 | F4 E3 ^F | G2 G4 F2 | A3 G F2 F2- | %105
 F2 A2 G3 G | F2 F4 E2 | F8 ||[M:3/4] F2 F2 G2 | F3 D E2 | F2 F2 D2 | G2 F3 E | F4 z2 | G2 G2 A2 | %114
 G3 F F2 | E>F G F2 E | F6 ||[M:4/4] x8 | C4 C2 F2- | FE C2 D2 E2- | E2 DE FE A2- | AG FE F2 A2 | %122
 z2 F2 F2 B2- | BA F2 A2 G2 | cBAG A4 | A2 B2 AG FE | FG AF G4 | F8 | z2 F2 F2 G2 | F6 E2 | %130
 E2 F2 E2 D2- | D2 E2 F4 | z2 A2 A2 G2 | A2 B4 B2 | A8 ||[M:3/4] F2 F2 G2 | F3 D E2 | F2 F2 D2 | %138
 G2 F3 E | F4 z2 | G2 G2 A2 | G3 F F2 | E>F G F2 E | F6 ||[M:4/4] C6 C2 | DE F4 E2 | F6 A2- | %147
 A2 A2 F4 | E2 E2 F2 xx | xx G2 G2 G2 | F2 xx xx [Ac]2 | [Gc]2 [Gc][Gc] A2 FF- | FE/D/ E2 F2 AA | %153
 B2 A2 z2 AA | B2 F2 F4 | G2 GG A2 FF- | FE/D/ E2 F4 :| C6 C2 | DE F4 E2 | F6 A2- | A2 A2 F4 | %161
 G4 G2 G2 | A3 G FGA=B | c4 A4 | B2 GG BB B2 | A2 A2 G2 [FA][FA] | [FA][FA] G2 G2 E2 | F2 x6 | x8 | %169
 F2 A2 D4 | [CE]2 [EG][EG] F2 D2 | C4 C2 x2 | B2 A2 F4- | F8 | [EG]2 [EG][EG] A2 FF- | %175
 FE/D/ E2 F2 CC | D2 C2 F4 | [FA]8 |] %178
V:7
 x8 | x8 | x8 | C,4 F,2 G,2 | F,2 C,2 D,2 E,2 | F,4 z2 C,2 | F,2 G,2 F,2 D,2 | F,2 E,2 D,2 B,,2 | %8
 C,8 | F,8 || x8 | x8 | x8 | C,3 D, E,F, G,E, | F,G, F,2- F,2 A,2 | G,2 G,2 C,4 | x8 | z4 C,3 D, | %18
 E,F, G,E, F,G, A,B, | C2 A,2 G,2 G,2 | C,8 || x8 | x8 | x8 | F,2 F,F, E,2 G,2 | F,4 z4 | %26
 G,2 G,G, F,2 A,2 | G,4 C,2 C,C, | B,,2 D,2 C,4 | x8 | z4 C,2 C,C, | B,,2 D,2 C,4 | F,8 || %33
 F,3 F, F,2 B,,2 | C,2 C,2 F,2 G,2 | F,2 F,F, CD C2 | F,2 F,2 D,2 B,,2 | F,2 F,F, D,2 B,,B,, | %38
 F,2 _E,4 E,2 | B,,2 F,2 C,2 C,2 | F,2 D,2 A,4 | G,4 C,2 F,2- | F,F, F,2 C,2 B,,2 | F,2 G,4 C,2 | %44
 F,2 F,2 B,3 A, | G,F, _E,2 F,2 C,2 | D,2 F,2 C,4 | F,2!p! F,2 G,A, B,2 | A, F,2 C =B,2 C2 | %49
 z4 C,4- | C,2 C,2 F,4 | F,2 F,2 D,3 D, | C,4 z4 | x8 | z4 F,4- | F,2 F,2 B,,4- | B,,4 F,2 F,2 | %57
 C,C, F,2 C,2 F,2- | F,2 B,,2 B,4 | F,4 G,3 G, | G,4 F,4 | !fermata!C,8 || C4 B,2 F,F, | %63
 A,A, C4 G,2 | A,3 G, F,C, D,2 | C,4 z4 | x6 G,G, | C,2 B,,3 B,, B,,B,, | A,,A,, B,,2 F,2 F,2 | %69
 C,2 G,G, B,2 F,A, | G,2 C,2 z4 | z4 F,3 F, | A,2 F,2 B,B, C2 | F,4 z4 | z2 F,2 C2 F,F, | %75
 F,F, B,2 _E,4 | B,,4 C,4 | D,4 G,4 | z4 z2 C,2 | F,2 F,F, D,2 F,2 | B,,4 F,4 | C,8 | F,8 || x8 | %84
 z4 F,4- | F,2 D,2 F,2 C,D, | E,F, G,2 D,3 E, | F,2 G,2 F,4 | x8 | C,6 A,,2 | %90
 C,2 G,,A,, B,,C, D,2 | A,,3 B,, C,2 D,2 | C,4 F,4 | F,4 B,2 G,2 | C2 C2 F,4 | x8 | z2 F,3 D, D,2 | %97
 _E,2 C,2 G,2 G,2 | C,8 | F,4 F,4 | C2 F,2 B,4 | B,2 F,2 G,4 | D,4 A,3 D, | G,2 C,4 F,2 | %104
 F,3 C, D,2 B,,2- | B,,2 F,2 G,3 E, | F,4 C,4 | F,8 ||[M:3/4] F,3 D, _E,2 | D,2 G,2 C,2 | %110
 F,G, A,G, F,D, | E,2 F,2 G,2 | x6 | C,2 C,2 F,2 | C,3 F, B,,2 | C,>D, E,F, C,2 | F,6 || %117
[M:4/4] x8 | x8 | x8 | x8 | x8 | x8 | x8 | x8 | x8 | x8 | x8 | x8 | x8 | x8 | x8 | x8 | x8 | x8 || %135
[M:3/4] F,3 D, _E,2 | D,2 G,2 C,2 | F,G, A,G, F,D, | E,2 F,2 G,2 | x6 | C,2 C,2 F,2 | C,3 F, B,,2 | %142
 C,>D, E,F, C,2 | F,6 ||[M:4/4] F,6 F,2 | B,3 A, G,4 | F,8 | x8 | C,4 F,2 F,F, | A,A, C2 G,2 E,2 | %150
 F,2 D,D, B,,B,, F,2 | C,2 E,E, F,2 D,2 | C,4 F,2 z2 | z2 F,F, B,2 F,2 | z2 A,A, D4 | %155
 C2 E,E, F,2 F,2 | C,4 F,4 :| F,6 F,2 | B,3 A, G,4 | F,8 | x8 | C,6 C,2 | F,3 E, D,4 | %163
 C,4 F,2 F,2 | B,2 _E,E, G,G, B,2 | F,2 F,2 C2 F,F, | A,A, C2 G,2 C,2 | F,2 B,,B,, D,D, F,2 | %168
 C,4 z4 | x8 | z2 C,C, F,2 B,,2 | C,4 F,4 | z2 F,F, B,2 A,2 | z2 A,A, D4 | C2 C,C, F,2 F,2 | %175
 C,4 F,2 F,F, | B,,2 A,,2 B,,4 | F,8 |] %178
V:8
 z8 | z8 | z8 | z8 | z8 | z8 | z8 | z8 | z8 | z8 || z8 | z8 | z8 | z8 | z8 | z8 | z8 | z8 | z8 | %19
 z8 | z8 || z8 | z8 | z8 | z8 | z8!mf! | z8 | z8 | z8 | z8 | z8 | z8 | z8 || z8 | z8 | z8 | z8 | %37
 z8 | z8 | z8 | z8 | z8 | z8 | z8 | z8 | z8 | z8 | z8 | z8 | z8 | z8 | z8 | z8 | z8 | z8 | z8 | %56
 z8 | z8 | z8 | z8 | z8 | z8 || z8 | z8 | z8 | z8 | z8 | z8 | z8 | z8 | z8 | z8 | z8 | z8 | z8 | %75
 z8 | z8 | z8 | z8 | z8 | z8 | z8 | z8 || z8 | z8 | z8 | z8 | z8 | z8 | z8 | z8 | z8 | z8 | z8 | %94
 z8 | z8 | z8 | z8 | z8 | z8 | z8 | z8 | z8 | z8 | z8 | z8 | z8 | z8 ||[M:3/4] z6 | z6 | z6 | z6 | %112
 z6 | z6 | z6 | z6 | z6 ||[M:4/4] z8 | z8 | z8 | z8 | z8 | z8 | z8 | z8 | z8 | z8 | z8 | z8 | z8 | %130
 z8 | z8 | z8 | z8 | z8 ||[M:3/4] z6 | z6 | z6 | z6 | z6 | z6 | z6 | z6 | z6 ||[M:4/4] z8 | z8 | %146
 z8 | z8 | z8 | z8 | z8 | z8 | z8 | z8 | z8 | z8 | z8 :| z8 | z8 | z8 | z8 | z8 | z8 | z8 | z8 | %165
 z8 | z8 | z8 | z8 | z8 | z8 | z8 | z8 | z8 | z8 | z8 | z8 | z8 |] %178

